X: 1
T: And So To Ennis
M: 6/8
L: 1/8
R: jig
K: Emaj
Bgg g2f |gbb bgf |gec c2 A | Bce efg |
B2g g2f | gbb bgf | gag gec | fec e2 c :|
Bff f2e | fae fga | Bff f2e | fga cBA |
Bfe f2g |fae fga | Bff fec |cBA B3 :|
